alert-box-outline.svg

<svg fill="currentColor" viewBox="0 0 24 24"><path d="M19 19H5V5h14m0-2H5a2 2 0 0 0-2 2v14a2 2 0 0 0 2 2h14a2 2 0 0 0 2-2V5a2 2 0 0 0-2-2m-8 12h2v2h-2zm0-8h2v6h-2z"/></svg>

<svg  viewBox="0 0 24 24" fill="currentColor"><path  d="M19,19H5V5H19M19,3H5A2,2 0 0,0 3,5V19A2,2 0 0,0 5,21H19A2,2 0 0,0 21,19V5C21,3.89 20.1,3 19,3M11,15H13V17H11V15M11,7H13V13H11V7"/></svg>
